assets/img/careers/noun_corporate culture_2451041.svg

<svg width="70" height="70" viewBox="0 0 70 70" fill="none" xmlns="http://www.w3.org/2000/svg">
<path d="M33.8333 4.66666H31.5V6.99999H33.8333V4.66666Z" fill="#5e2ced"/>
<path d="M38.5 4.66666H36.1667V6.99999H38.5V4.66666Z" fill="#5e2ced"/>
<path d="M33.8333 9.33334H31.5V11.6667H33.8333V9.33334Z" fill="#5e2ced"/>
<path d="M38.5 9.33334H36.1667V11.6667H38.5V9.33334Z" fill="#5e2ced"/>
<path d="M33.8333 14H31.5V16.3333H33.8333V14Z" fill="#5e2ced"/>
<path d="M38.5 14H36.1667V16.3333H38.5V14Z" fill="#5e2ced"/>
<path d="M33.8333 18.6667H31.5V21H33.8333V18.6667Z" fill="#5e2ced"/>
<path d="M38.5 18.6667H36.1667V21H38.5V18.6667Z" fill="#5e2ced"/>
<path d="M33.8333 23.3333H31.5V25.6667H33.8333V23.3333Z" fill="#5e2ced"/>
<path d="M38.5 23.3333H36.1667V25.6667H38.5V23.3333Z" fill="#5e2ced"/>
<path d="M47.8333 23.3333H45.5V25.6667H47.8333V23.3333Z" fill="#5e2ced"/>
<path d="M47.8333 28H45.5V30.3333H47.8333V28Z" fill="#5e2ced"/>
<path d="M47.8333 32.6667H45.5V35H47.8333V32.6667Z" fill="#5e2ced"/>
<path d="M47.8333 37.3333H45.5V39.6667H47.8333V37.3333Z" fill="#5e2ced"/>
<path d="M24.5 23.3333H22.1667V25.6667H24.5V23.3333Z" fill="#5e2ced"/>
<path d="M24.5 28H22.1667V30.3333H24.5V28Z" fill="#5e2ced"/>
<path d="M24.5 32.6667H22.1667V35H24.5V32.6667Z" fill="#5e2ced"/>
<path d="M24.5 37.3333H22.1667V39.6667H24.5V37.3333Z" fill="#5e2ced"/>
<path d="M68.8333 11.6667H67.6667V8.16667C67.6667 7.85725 67.5437 7.5605 67.325 7.34171C67.1062 7.12292 66.8094 7 66.5 7H53.6667C53.3572 7 53.0605 7.12292 52.8417 7.34171C52.6229 7.5605 52.5 7.85725 52.5 8.16667V11.6667H51.3333C51.0239 11.6667 50.7272 11.7896 50.5084 12.0084C50.2896 12.2272 50.1667 12.5239 50.1667 12.8333V18.6667H47.8333V8.16667C47.8333 7.85725 47.7104 7.5605 47.4916 7.34171C47.2728 7.12292 46.9761 7 46.6667 7H43.1667V1.16667C43.1667 0.857247 43.0438 0.560501 42.825 0.341709C42.6062 0.122916 42.3094 0 42 0H28C27.6906 0 27.3938 0.122916 27.175 0.341709C26.9562 0.560501 26.8333 0.857247 26.8333 1.16667V7H23.3333C23.0239 7 22.7272 7.12292 22.5084 7.34171C22.2896 7.5605 22.1667 7.85725 22.1667 8.16667V18.6667H19.8333V12.8333C19.8333 12.5239 19.7104 12.2272 19.4916 12.0084C19.2728 11.7896 18.9761 11.6667 18.6667 11.6667H17.5V8.16667C17.5 7.85725 17.3771 7.5605 17.1583 7.34171C16.9395 7.12292 16.6428 7 16.3333 7H3.5C3.19058 7 2.89383 7.12292 2.67504 7.34171C2.45625 7.5605 2.33333 7.85725 2.33333 8.16667V11.6667H1.16667C0.857247 11.6667 0.560501 11.7896 0.341709 12.0084C0.122916 12.2272 0 12.5239 0 12.8333V38.5H2.33333V14H17.5V29.1667H19.8333V21H26.8333V28H29.1667V2.33333H40.8333V28H43.1667V21H50.1667V35H52.5V14H67.6667V38.5H70V12.8333C70 12.5239 69.8771 12.2272 69.6583 12.0084C69.4395 11.7896 69.1428 11.6667 68.8333 11.6667ZM4.66667 11.6667V9.33333H15.1667V11.6667H4.66667ZM24.5 18.6667V9.33333H26.8333V18.6667H24.5ZM43.1667 18.6667V9.33333H45.5V18.6667H43.1667ZM54.8333 11.6667V9.33333H65.3333V11.6667H54.8333Z" fill="#5e2ced"/>
<path d="M59.5 16.3333H54.8333V18.6667H59.5V16.3333Z" fill="#5e2ced"/>
<path d="M66.5 16.3333H61.8333V18.6667H66.5V16.3333Z" fill="#5e2ced"/>
<path d="M59.5 21H54.8333V23.3333H59.5V21Z" fill="#5e2ced"/>
<path d="M66.5 21H61.8333V23.3333H66.5V21Z" fill="#5e2ced"/>
<path d="M64.1667 39.6667H64.1363C64.9084 38.6629 65.329 37.433 65.3333 36.1667V33.8333C65.3333 32.2862 64.7188 30.8025 63.6248 29.7085C62.5308 28.6146 61.0471 28 59.5 28C57.9529 28 56.4692 28.6146 55.3752 29.7085C54.2812 30.8025 53.6667 32.2862 53.6667 33.8333V36.1667C53.671 37.433 54.0916 38.6629 54.8637 39.6667H54.8333C53.5696 39.6658 52.3332 40.0351 51.2771 40.7291C50.2209 41.423 49.3911 42.4112 48.8903 43.5715L47.25 47.0622L45.6167 43.5937C45.119 42.428 44.2897 41.4342 43.2318 40.736C42.1739 40.0378 40.9342 39.666 39.6667 39.6667H39.6363C40.4084 38.6629 40.829 37.433 40.8333 36.1667V33.8333C40.8333 32.2862 40.2188 30.8025 39.1248 29.7085C38.0308 28.6146 36.5471 28 35 28C33.4529 28 31.9692 28.6146 30.8752 29.7085C29.7812 30.8025 29.1667 32.2862 29.1667 33.8333V36.1667C29.171 37.433 29.5916 38.6629 30.3637 39.6667H30.3333C29.0732 39.667 27.8405 40.0352 26.7866 40.7262C25.7328 41.4172 24.9036 42.4008 24.4008 43.5563L22.7512 47.0563L21.1178 43.5843C20.6185 42.4203 19.7884 41.4285 18.7304 40.732C17.6725 40.0355 16.4333 39.6651 15.1667 39.6667H15.1363C15.9084 38.6629 16.329 37.433 16.3333 36.1667V33.8333C16.3333 32.2862 15.7188 30.8025 14.6248 29.7085C13.5308 28.6146 12.0471 28 10.5 28C8.9529 28 7.46917 28.6146 6.37521 29.7085C5.28125 30.8025 4.66667 32.2862 4.66667 33.8333V36.1667C4.67096 37.433 5.09156 38.6629 5.86367 39.6667H5.83333C4.28681 39.6685 2.80415 40.2837 1.71059 41.3773C0.617029 42.4708 0.0018525 43.9535 0 45.5V56C0 56.3094 0.122916 56.6062 0.341709 56.825C0.560501 57.0438 0.857247 57.1667 1.16667 57.1667H4.66667V67.6667H0V70H70V67.6667H65.3333V57.1667H68.8333C69.1428 57.1667 69.4395 57.0438 69.6583 56.825C69.8771 56.6062 70 56.3094 70 56V45.5C69.9981 43.9535 69.383 42.4708 68.2894 41.3773C67.1958 40.2837 65.7132 39.6685 64.1667 39.6667ZM56 36.1667V33.8333C56 32.9051 56.3687 32.0148 57.0251 31.3585C57.6815 30.7021 58.5717 30.3333 59.5 30.3333C60.4283 30.3333 61.3185 30.7021 61.9749 31.3585C62.6312 32.0148 63 32.9051 63 33.8333V36.1667C63 37.0949 62.6312 37.9852 61.9749 38.6415C61.3185 39.2979 60.4283 39.6667 59.5 39.6667C58.5717 39.6667 57.6815 39.2979 57.0251 38.6415C56.3687 37.9852 56 37.0949 56 36.1667ZM31.5 36.1667V33.8333C31.5 32.9051 31.8687 32.0148 32.5251 31.3585C33.1815 30.7021 34.0717 30.3333 35 30.3333C35.9283 30.3333 36.8185 30.7021 37.4749 31.3585C38.1312 32.0148 38.5 32.9051 38.5 33.8333V36.1667C38.5 37.0949 38.1312 37.9852 37.4749 38.6415C36.8185 39.2979 35.9283 39.6667 35 39.6667C34.0717 39.6667 33.1815 39.2979 32.5251 38.6415C31.8687 37.9852 31.5 37.0949 31.5 36.1667ZM7 36.1667V33.8333C7 32.9051 7.36875 32.0148 8.02513 31.3585C8.6815 30.7021 9.57174 30.3333 10.5 30.3333C11.4283 30.3333 12.3185 30.7021 12.9749 31.3585C13.6313 32.0148 14 32.9051 14 33.8333V36.1667C14 37.0949 13.6313 37.9852 12.9749 38.6415C12.3185 39.2979 11.4283 39.6667 10.5 39.6667C9.57174 39.6667 8.6815 39.2979 8.02513 38.6415C7.36875 37.9852 7 37.0949 7 36.1667ZM11.6667 67.6667V56H9.33333V67.6667H7V45.5H4.66667V54.8333H2.33333V45.5C2.33333 44.5717 2.70208 43.6815 3.35846 43.0251C4.01484 42.3688 4.90508 42 5.83333 42H15.1667C15.9837 42.0011 16.7822 42.2434 17.4621 42.6965C18.142 43.1495 18.6731 43.7932 18.9887 44.5468L23.8292 54.8333H20.5543L16.2167 46.1452C16.1011 45.9065 15.9076 45.7142 15.6682 45.6002C15.4287 45.4862 15.1576 45.4572 14.8994 45.5179C14.6412 45.5786 14.4115 45.7255 14.248 45.9343C14.0845 46.1432 13.997 46.4015 14 46.6667V67.6667H11.6667ZM25.9817 57.12C26.0142 57.1093 26.0461 57.0968 26.0773 57.0827C26.1433 57.0589 26.2069 57.0292 26.2675 56.994C26.3542 56.9363 26.4351 56.8703 26.509 56.7968C26.5377 56.7662 26.5646 56.7338 26.5895 56.7C26.6117 56.6762 26.6328 56.6513 26.6525 56.6253C26.67 56.5962 26.6782 56.5647 26.6945 56.5355C26.7108 56.5063 26.7225 56.497 26.733 56.4737L29.1667 50.9973V67.6667H16.3333V51.6087L18.7892 56.5215C18.8861 56.7154 19.0351 56.8785 19.2195 56.9925C19.404 57.1065 19.6165 57.1668 19.8333 57.1667H25.6667C25.7733 57.166 25.8794 57.1503 25.9817 57.12ZM36.1667 67.6667V57.1667H33.8333V67.6667H31.5V45.5C31.5001 45.2326 31.4083 44.9732 31.24 44.7654C31.0716 44.5576 30.837 44.4139 30.5754 44.3584C30.3138 44.3029 30.0411 44.339 29.8029 44.4606C29.5647 44.5822 29.3755 44.7819 29.267 45.0263L25.6363 53.193L24.0403 49.8003L26.5288 44.5095C26.8491 43.7608 27.3832 43.1232 28.0642 42.6767C28.7368 42.2314 29.5266 41.9958 30.3333 42H39.6667C40.4837 42.0017 41.2821 42.2447 41.9616 42.6984C42.6411 43.1521 43.1715 43.7963 43.4863 44.5503L45.9585 49.8003L44.3007 53.3248L40.7167 46.1452C40.6011 45.9065 40.4076 45.7142 40.1682 45.6002C39.9287 45.4862 39.6576 45.4572 39.3994 45.5179C39.1412 45.5786 38.9115 45.7255 38.748 45.9343C38.5845 46.1432 38.497 46.4015 38.5 46.6667V67.6667H36.1667ZM51.233 56.4737L53.6667 50.9973V67.6667H40.8333V51.6087L43.2833 56.5215C43.2915 56.5378 43.3055 56.5507 43.3148 56.5658C43.3242 56.581 43.33 56.6067 43.3417 56.6253C43.3661 56.6578 43.3922 56.6889 43.4198 56.7187C43.4446 56.7523 43.4711 56.7846 43.4992 56.8155C43.5445 56.8578 43.5929 56.8968 43.6438 56.9322C43.6765 56.9555 43.7057 56.9812 43.7395 57.001C43.7992 57.034 43.8616 57.0617 43.9262 57.0838C43.9577 57.0955 43.9868 57.1118 44.0195 57.1212C44.1216 57.1503 44.2272 57.1657 44.3333 57.1667H50.1667C50.3924 57.1667 50.6133 57.1012 50.8026 56.9782C50.9918 56.8552 51.1414 56.68 51.233 56.4737ZM67.6667 54.8333H65.3333V44.3333H63V67.6667H60.6667V56H58.3333V67.6667H56V45.5C56.0001 45.2326 55.9083 44.9732 55.74 44.7654C55.5716 44.5576 55.337 44.4139 55.0754 44.3584C54.8138 44.3029 54.5411 44.339 54.3029 44.4606C54.0647 44.5822 53.8755 44.7819 53.767 45.0263L49.4095 54.8333H46.1708L51.0113 44.5468C51.0172 44.534 51.0218 44.5223 51.0265 44.5095C51.3454 43.7643 51.8762 43.1291 52.553 42.683C53.2298 42.2368 54.0227 41.9993 54.8333 42H64.1667C65.0949 42 65.9852 42.3688 66.6415 43.0251C67.2979 43.6815 67.6667 44.5717 67.6667 45.5V54.8333Z" fill="#5e2ced"/>
<path d="M15.1667 16.3333H4.66666V18.6667H15.1667V16.3333Z" fill="#5e2ced"/>
<path d="M15.1667 21H4.66666V23.3333H15.1667V21Z" fill="#5e2ced"/>
</svg>

<?xml version="1.0" encoding="utf-8"?>
<!-- Generator: Adobe Illustrator 24.0.1, SVG Export Plug-In . SVG Version: 6.00 Build 0)  -->
<svg version="1.1" id="Слой_1" xmlns="http://www.w3.org/2000/svg" xmlns:xlink="http://www.w3.org/1999/xlink" x="0px" y="0px"
	 viewBox="0 0 70 70" style="enable-background:new 0 0 70 70;" xml:space="preserve">
<style type="text/css">
	.st0{fill:#FFFFFF;}
</style>
<path class="st0" d="M33.8,4.7h-2.3V7h2.3V4.7z"/>
<path class="st0" d="M38.5,4.7h-2.3V7h2.3V4.7z"/>
<path class="st0" d="M33.8,9.3h-2.3v2.3h2.3V9.3z"/>
<path class="st0" d="M38.5,9.3h-2.3v2.3h2.3V9.3z"/>
<path class="st0" d="M33.8,14h-2.3v2.3h2.3V14z"/>
<path class="st0" d="M38.5,14h-2.3v2.3h2.3V14z"/>
<path class="st0" d="M33.8,18.7h-2.3V21h2.3V18.7z"/>
<path class="st0" d="M38.5,18.7h-2.3V21h2.3V18.7z"/>
<path class="st0" d="M33.8,23.3h-2.3v2.3h2.3V23.3z"/>
<path class="st0" d="M38.5,23.3h-2.3v2.3h2.3V23.3z"/>
<path class="st0" d="M47.8,23.3h-2.3v2.3h2.3V23.3z"/>
<path class="st0" d="M47.8,28h-2.3v2.3h2.3V28z"/>
<path class="st0" d="M47.8,32.7h-2.3V35h2.3V32.7z"/>
<path class="st0" d="M47.8,37.3h-2.3v2.3h2.3V37.3z"/>
<path class="st0" d="M24.5,23.3h-2.3v2.3h2.3V23.3z"/>
<path class="st0" d="M24.5,28h-2.3v2.3h2.3V28z"/>
<path class="st0" d="M24.5,32.7h-2.3V35h2.3V32.7z"/>
<path class="st0" d="M24.5,37.3h-2.3v2.3h2.3V37.3z"/>
<path class="st0" d="M68.8,11.7h-1.2V8.2c0-0.3-0.1-0.6-0.3-0.8C67.1,7.1,66.8,7,66.5,7H53.7c-0.3,0-0.6,0.1-0.8,0.3
	c-0.2,0.2-0.3,0.5-0.3,0.8v3.5h-1.2c-0.3,0-0.6,0.1-0.8,0.3s-0.3,0.5-0.3,0.8v5.8h-2.3V8.2c0-0.3-0.1-0.6-0.3-0.8S47,7,46.7,7h-3.5
	V1.2c0-0.3-0.1-0.6-0.3-0.8C42.6,0.1,42.3,0,42,0H28c-0.3,0-0.6,0.1-0.8,0.3c-0.2,0.2-0.3,0.5-0.3,0.8V7h-3.5
	c-0.3,0-0.6,0.1-0.8,0.3s-0.3,0.5-0.3,0.8v10.5h-2.3v-5.8c0-0.3-0.1-0.6-0.3-0.8s-0.5-0.3-0.8-0.3h-1.2V8.2c0-0.3-0.1-0.6-0.3-0.8
	S16.6,7,16.3,7H3.5C3.2,7,2.9,7.1,2.7,7.3S2.3,7.9,2.3,8.2v3.5H1.2c-0.3,0-0.6,0.1-0.8,0.3C0.1,12.2,0,12.5,0,12.8v25.7h2.3V14h15.2
	v15.2h2.3V21h7v7h2.3V2.3h11.7V28h2.3v-7h7v14h2.3V14h15.2v24.5H70V12.8c0-0.3-0.1-0.6-0.3-0.8C69.4,11.8,69.1,11.7,68.8,11.7z
	 M4.7,11.7V9.3h10.5v2.3H4.7z M24.5,18.7V9.3h2.3v9.3H24.5z M43.2,18.7V9.3h2.3v9.3H43.2z M54.8,11.7V9.3h10.5v2.3H54.8z"/>
<path class="st0" d="M59.5,16.3h-4.7v2.3h4.7V16.3z"/>
<path class="st0" d="M66.5,16.3h-4.7v2.3h4.7V16.3z"/>
<path class="st0" d="M59.5,21h-4.7v2.3h4.7V21z"/>
<path class="st0" d="M66.5,21h-4.7v2.3h4.7V21z"/>
<path class="st0" d="M64.2,39.7L64.2,39.7c0.7-1,1.2-2.2,1.2-3.5v-2.3c0-1.5-0.6-3-1.7-4.1C62.5,28.6,61,28,59.5,28s-3,0.6-4.1,1.7
	c-1.1,1.1-1.7,2.6-1.7,4.1v2.3c0,1.3,0.4,2.5,1.2,3.5h0c-1.3,0-2.5,0.4-3.6,1.1c-1.1,0.7-1.9,1.7-2.4,2.8l-1.6,3.5l-1.6-3.5
	c-0.5-1.2-1.3-2.2-2.4-2.9s-2.3-1.1-3.6-1.1h0c0.8-1,1.2-2.2,1.2-3.5v-2.3c0-1.5-0.6-3-1.7-4.1C38,28.6,36.5,28,35,28
	s-3,0.6-4.1,1.7c-1.1,1.1-1.7,2.6-1.7,4.1v2.3c0,1.3,0.4,2.5,1.2,3.5h0c-1.3,0-2.5,0.4-3.5,1.1c-1.1,0.7-1.9,1.7-2.4,2.8l-1.6,3.5
	l-1.6-3.5c-0.5-1.2-1.3-2.2-2.4-2.9c-1.1-0.7-2.3-1.1-3.6-1.1h0c0.8-1,1.2-2.2,1.2-3.5v-2.3c0-1.5-0.6-3-1.7-4.1
	C13.5,28.6,12,28,10.5,28s-3,0.6-4.1,1.7c-1.1,1.1-1.7,2.6-1.7,4.1v2.3c0,1.3,0.4,2.5,1.2,3.5h0c-1.5,0-3,0.6-4.1,1.7
	C0.6,42.5,0,44,0,45.5V56c0,0.3,0.1,0.6,0.3,0.8c0.2,0.2,0.5,0.3,0.8,0.3h3.5v10.5H0V70h70v-2.3h-4.7V57.2h3.5
	c0.3,0,0.6-0.1,0.8-0.3c0.2-0.2,0.3-0.5,0.3-0.8V45.5c0-1.5-0.6-3-1.7-4.1C67.2,40.3,65.7,39.7,64.2,39.7z M56,36.2v-2.3
	c0-0.9,0.4-1.8,1-2.5c0.7-0.7,1.5-1,2.5-1s1.8,0.4,2.5,1c0.7,0.7,1,1.5,1,2.5v2.3c0,0.9-0.4,1.8-1,2.5c-0.7,0.7-1.5,1-2.5,1
	s-1.8-0.4-2.5-1C56.4,38,56,37.1,56,36.2z M31.5,36.2v-2.3c0-0.9,0.4-1.8,1-2.5c0.7-0.7,1.5-1,2.5-1s1.8,0.4,2.5,1
	c0.7,0.7,1,1.5,1,2.5v2.3c0,0.9-0.4,1.8-1,2.5c-0.7,0.7-1.5,1-2.5,1s-1.8-0.4-2.5-1C31.9,38,31.5,37.1,31.5,36.2z M7,36.2v-2.3
	c0-0.9,0.4-1.8,1-2.5c0.7-0.7,1.5-1,2.5-1c0.9,0,1.8,0.4,2.5,1c0.7,0.7,1,1.5,1,2.5v2.3c0,0.9-0.4,1.8-1,2.5c-0.7,0.7-1.5,1-2.5,1
	c-0.9,0-1.8-0.4-2.5-1C7.4,38,7,37.1,7,36.2z M11.7,67.7V56H9.3v11.7H7V45.5H4.7v9.3H2.3v-9.3c0-0.9,0.4-1.8,1-2.5
	c0.7-0.7,1.5-1,2.5-1h9.3c0.8,0,1.6,0.2,2.3,0.7c0.7,0.5,1.2,1.1,1.5,1.9l4.8,10.3h-3.3l-4.3-8.7c-0.1-0.2-0.3-0.4-0.5-0.5
	c-0.2-0.1-0.5-0.1-0.8-0.1c-0.3,0.1-0.5,0.2-0.7,0.4c-0.2,0.2-0.3,0.5-0.2,0.7v21H11.7z M26,57.1C26,57.1,26,57.1,26,57.1
	c0.2-0.1,0.2-0.1,0.3-0.1c0.1-0.1,0.2-0.1,0.2-0.2c0,0,0.1-0.1,0.1-0.1c0,0,0,0,0.1-0.1c0,0,0-0.1,0-0.1c0,0,0,0,0-0.1l2.4-5.5v16.7
	H16.3V51.6l2.5,4.9c0.1,0.2,0.2,0.4,0.4,0.5c0.2,0.1,0.4,0.2,0.6,0.2h5.8C25.8,57.2,25.9,57.2,26,57.1z M36.2,67.7V57.2h-2.3v10.5
	h-2.3V45.5c0-0.3-0.1-0.5-0.3-0.7c-0.2-0.2-0.4-0.4-0.7-0.4c-0.3-0.1-0.5,0-0.8,0.1c-0.2,0.1-0.4,0.3-0.5,0.6l-3.6,8.2L24,49.8
	l2.5-5.3c0.3-0.7,0.9-1.4,1.5-1.8c0.7-0.4,1.5-0.7,2.3-0.7h9.3c0.8,0,1.6,0.2,2.3,0.7c0.7,0.5,1.2,1.1,1.5,1.9l2.5,5.2l-1.7,3.5
	l-3.6-7.2c-0.1-0.2-0.3-0.4-0.5-0.5c-0.2-0.1-0.5-0.1-0.8-0.1c-0.3,0.1-0.5,0.2-0.7,0.4c-0.2,0.2-0.3,0.5-0.2,0.7v21H36.2z
	 M51.2,56.5l2.4-5.5v16.7H40.8V51.6l2.4,4.9c0,0,0,0,0,0c0,0,0,0,0,0.1c0,0,0.1,0.1,0.1,0.1c0,0,0.1,0.1,0.1,0.1
	c0,0,0.1,0.1,0.1,0.1c0,0,0.1,0,0.1,0.1c0.1,0,0.1,0.1,0.2,0.1c0,0,0.1,0,0.1,0c0.1,0,0.2,0,0.3,0h5.8c0.2,0,0.4-0.1,0.6-0.2
	C51,56.9,51.1,56.7,51.2,56.5z M67.7,54.8h-2.3V44.3H63v23.3h-2.3V56h-2.3v11.7H56V45.5c0-0.3-0.1-0.5-0.3-0.7
	c-0.2-0.2-0.4-0.4-0.7-0.4s-0.5,0-0.8,0.1c-0.2,0.1-0.4,0.3-0.5,0.6l-4.4,9.8h-3.2L51,44.5c0,0,0,0,0,0c0.3-0.7,0.8-1.4,1.5-1.8
	c0.7-0.4,1.5-0.7,2.3-0.7h9.3c0.9,0,1.8,0.4,2.5,1c0.7,0.7,1,1.5,1,2.5V54.8z"/>
<path class="st0" d="M15.2,16.3H4.7v2.3h10.5V16.3z"/>
<path class="st0" d="M15.2,21H4.7v2.3h10.5V21z"/>
</svg>
